images/usecases/health-care/hospital-1.svg

<svg width="248" height="322" viewBox="0 0 248 322" fill="none" xmlns="http://www.w3.org/2000/svg">
<rect x="59.25" y="120.75" width="186.5" height="186.5" rx="93.25" stroke="#B2BFD1" stroke-width="1.5"/>
<path d="M189.983 239.995C189.983 241.183 189.02 242.146 187.832 242.146C186.644 242.146 185.68 241.183 185.68 239.995C185.68 238.807 186.644 237.844 187.832 237.844C189.02 237.844 189.983 238.807 189.983 239.995Z" fill="#305680" stroke="#305680" stroke-width="0.187082"/>
<rect x="111.342" y="248.083" width="82.3163" height="11.412" rx="2.99332" stroke="#305680" stroke-width="4.48998"/>
<rect x="165.97" y="203.003" width="27.6882" height="11.412" rx="2.99332" stroke="#305680" stroke-width="4.48998"/>
<path d="M185.842 232.75C185.842 233.99 186.847 234.995 188.087 234.995C189.327 234.995 190.332 233.99 190.332 232.75L185.842 232.75ZM185.842 213.75L185.842 232.75L190.332 232.75L190.332 213.75H185.842Z" fill="#305680"/>
<rect x="130.985" y="231.123" width="20.5791" height="16.8374" stroke="#305680" stroke-width="4.48998"/>
<path d="M126.309 231.029H156.522" stroke="#305680" stroke-width="4.48998" stroke-linecap="round"/>
<path d="M141.275 231.217V247.68" stroke="#305680" stroke-width="4.48998" stroke-linecap="round"/>
<path d="M165.5 247.487V182.122C165.5 181.503 164.997 181 164.378 181H117.622C117.003 181 116.5 181.503 116.5 182.122V249" stroke="#305680" stroke-width="4.48998"/>
<rect x="128.629" y="168.879" width="24.5078" height="24.5078" rx="2.61915" fill="white" stroke="#305680" stroke-width="3.74165"/>
<path d="M140.99 176.75V185.543M136.5 180.866H145.293" stroke="#305680" stroke-width="3.74165" stroke-linecap="round"/>
<path d="M0 212H42.4334" stroke="#B2BFD1" stroke-width="1.5"/>
<line x1="144.078" y1="24" x2="144.078" y2="104" stroke="#B2BFD1" stroke-width="1.5"/>
<path d="M41.4909 212.775C41.4568 198.371 44.1026 184.102 49.2768 170.785C54.451 157.468 62.0518 145.364 71.644 135.166C81.2361 124.969 92.6311 116.879 105.176 111.359C117.721 105.84 131.17 102.999 144.752 103L144.752 104.523C131.359 104.522 118.097 107.323 105.727 112.766C93.356 118.209 82.1195 126.187 72.6608 136.242C63.2021 146.298 55.707 158.233 50.6048 171.365C45.5025 184.497 42.8935 198.568 42.9271 212.771L41.4909 212.775Z" fill="#B2BFD1"/>
<circle cx="144.973" cy="12" r="11.25" fill="#F4F8FE" stroke="#B2BFD1" stroke-width="1.5"/>
</svg>

<svg width="248" height="322" fill="none" xmlns="http://www.w3.org/2000/svg"><rect x="59.25" y="120.75" width="186.5" height="186.5" rx="93.25" stroke="#B2BFD1" stroke-width="1.5"/><path d="M189.983 239.995a2.151 2.151 0 1 1-4.302 0 2.151 2.151 0 0 1 4.302 0Z" fill="#305680" stroke="#305680" stroke-width=".187"/><rect x="111.342" y="248.083" width="82.316" height="11.412" rx="2.993" stroke="#305680" stroke-width="4.49"/><rect x="165.97" y="203.003" width="27.688" height="11.412" rx="2.993" stroke="#305680" stroke-width="4.49"/><path d="M185.842 232.75a2.245 2.245 0 1 0 4.49 0h-4.49Zm0-19v19h4.49v-19h-4.49Z" fill="#305680"/><path stroke="#305680" stroke-width="4.49" d="M130.985 231.123h20.579v16.837h-20.579z"/><path d="M126.309 231.029h30.213M141.275 231.217v16.463" stroke="#305680" stroke-width="4.49" stroke-linecap="round"/><path d="M165.5 247.487v-65.365c0-.619-.503-1.122-1.122-1.122h-46.756c-.619 0-1.122.503-1.122 1.122V249" stroke="#305680" stroke-width="4.49"/><rect x="128.629" y="168.879" width="24.508" height="24.508" rx="2.619" fill="#fff" stroke="#305680" stroke-width="3.742"/><path d="M140.99 176.75v8.793m-4.49-4.677h8.793" stroke="#305680" stroke-width="3.742" stroke-linecap="round"/><path d="M0 212h42.433M144.078 24v80" stroke="#B2BFD1" stroke-width="1.5"/><path d="M41.49 212.775c-.033-14.404 2.613-28.673 7.787-41.99 5.174-13.317 12.775-25.421 22.367-35.619 9.592-10.197 20.987-18.287 33.532-23.807 12.545-5.519 25.994-8.36 39.576-8.359v1.523c-13.393-.001-26.655 2.8-39.025 8.243-12.371 5.443-23.608 13.421-33.066 23.476-9.459 10.056-16.954 21.991-22.056 35.123-5.102 13.132-7.711 27.203-7.678 41.406l-1.436.004Z" fill="#B2BFD1"/><circle cx="144.973" cy="12" r="11.25" fill="#F4F8FE" stroke="#B2BFD1" stroke-width="1.5"/></svg>
